X: 35854
T: Samhradh
R: reel
M: 4/4
K: Edorian
|:B2E2 ~E4|G2B2d2B2|c4A2B2|c2A2B2c2|
[1 B2E2G2B2|d2G2B2d2|cBA2 B2c2|B2A2F2A2:|
[2 B2G2A2F2|G2E2F2D2|B,2 C2 D2 E2|F2 E2 E4||
|:G2A2B2c2|d2B2A2=c2|B2e2e2d2|e4 e2 f2|
[1 gfe2f2d2|e2c2d2B2|c2A2B2G2|F8:|
[2 b2 g2 ~g4|a2 f2 ~f4|efg2 f2 d2|e8||

